X:496
T: O, was hab ich Graun und Zagen (5-92), S. 144
N: P0766
O: Lothringen
S: MERKELBACH-PINCK, Angelika: Verklingende Weisen, Bd 5, Kassel 1962]
R: historisches Lied]
M: 4/4
L: 1/8
K: C
 | E3DC2E2 | G3FF2E2 |
c3BA2G2 | GFE2D4 |
D2F2c3G | E2G2ccz2 |
G2B2d3G | E2G2ccz2 |
D2F2c3G | E2G2ccz2 |
G2B2d3G | E2G2ccz2 |
c3BA2G2 | GFE2D4 |
FGA2G2GF | E3DC4

@@@ Tune index: 8046
